X:4647
T:No name
O:england
M:C|
L:1/8
R:reel
K:Amix
cd|ea~a2 efgf|ea~a2 ABcd|ea~a2 efge|afge d2:|
|:cd|eA~A2 efgf|eA~A2 BAGB|ABcd efge|afge d2:|


